polaris-icons/icons/new-icons/BehaviorMajor.svg

<svg width="20" height="20" viewBox="0 0 20 20" fill="none" xmlns="http://www.w3.org/2000/svg">
<path d="M10.5 3.75C10.5 3.33579 10.1642 3 9.75 3C9.33579 3 9 3.33579 9 3.75V6.25C9 6.66421 9.33579 7 9.75 7C10.1642 7 10.5 6.66421 10.5 6.25V3.75Z" fill="#4A4A4A"/>
<path d="M14.2803 6.28033C14.5732 5.98744 14.5732 5.51256 14.2803 5.21967C13.9874 4.92678 13.5126 4.92678 13.2197 5.21967L12.2197 6.21967C11.9268 6.51256 11.9268 6.98744 12.2197 7.28033C12.5126 7.57322 12.9874 7.57322 13.2803 7.28033L14.2803 6.28033Z" fill="#4A4A4A"/>
<path d="M7.28036 13.2803C7.57324 12.9874 7.57321 12.5125 7.2803 12.2196C6.98739 11.9268 6.51251 11.9268 6.21964 12.2197L5.2197 13.2198C4.92682 13.5127 4.92685 13.9875 5.21976 14.2804C5.51267 14.5733 5.98754 14.5733 6.28042 14.2804L7.28036 13.2803Z" fill="#4A4A4A"/>
<path d="M7 9.75C7 10.1642 6.66421 10.5 6.25 10.5L3.75 10.5C3.33579 10.5 3 10.1642 3 9.75C3 9.33579 3.33579 9 3.75 9L6.25 9C6.66421 9 7 9.33579 7 9.75Z" fill="#4A4A4A"/>
<path d="M5.96967 7.03033C6.26256 7.32322 6.73744 7.32322 7.03033 7.03033C7.32322 6.73744 7.32322 6.26256 7.03033 5.96967L5.28033 4.21967C4.98744 3.92678 4.51256 3.92678 4.21967 4.21967C3.92678 4.51256 3.92678 4.98744 4.21967 5.28033L5.96967 7.03033Z" fill="#4A4A4A"/>
<path fill-rule="evenodd" clip-rule="evenodd" d="M8.21968 8.21968C8.42055 8.01881 8.71768 7.94867 8.98718 8.0385L16.4872 10.5385C16.7338 10.6207 16.9202 10.8247 16.9799 11.0777C17.0397 11.3307 16.9641 11.5966 16.7803 11.7804L14.8107 13.75L16.7803 15.7197C17.0732 16.0126 17.0732 16.4874 16.7803 16.7803C16.4874 17.0732 16.0126 17.0732 15.7197 16.7803L13.75 14.8107L11.7803 16.7803C11.5965 16.9641 11.3307 17.0396 11.0777 16.9799C10.8247 16.9202 10.6207 16.7337 10.5385 16.4872L8.0385 8.98719C7.94866 8.71768 8.01881 8.42056 8.21968 8.21968ZM13.2181 13.2213L13.2197 13.2197L13.2213 13.2181L14.8616 11.5778L9.93586 9.93587L11.5778 14.8616L13.2181 13.2213Z" fill="#4A4A4A"/>
<path d="M10.5 3.75C10.5 3.33579 10.1642 3 9.75 3C9.33579 3 9 3.33579 9 3.75V6.25C9 6.66421 9.33579 7 9.75 7C10.1642 7 10.5 6.66421 10.5 6.25V3.75Z" fill="#4A4A4A"/>
<path d="M14.2803 6.28033C14.5732 5.98744 14.5732 5.51256 14.2803 5.21967C13.9874 4.92678 13.5126 4.92678 13.2197 5.21967L12.2197 6.21967C11.9268 6.51256 11.9268 6.98744 12.2197 7.28033C12.5126 7.57322 12.9874 7.57322 13.2803 7.28033L14.2803 6.28033Z" fill="#4A4A4A"/>
<path d="M7.28036 13.2803C7.57324 12.9874 7.57321 12.5125 7.2803 12.2196C6.98739 11.9268 6.51251 11.9268 6.21964 12.2197L5.2197 13.2198C4.92682 13.5127 4.92685 13.9875 5.21976 14.2804C5.51267 14.5733 5.98754 14.5733 6.28042 14.2804L7.28036 13.2803Z" fill="#4A4A4A"/>
<path d="M7 9.75C7 10.1642 6.66421 10.5 6.25 10.5L3.75 10.5C3.33579 10.5 3 10.1642 3 9.75C3 9.33579 3.33579 9 3.75 9L6.25 9C6.66421 9 7 9.33579 7 9.75Z" fill="#4A4A4A"/>
<path d="M5.96967 7.03033C6.26256 7.32322 6.73744 7.32322 7.03033 7.03033C7.32322 6.73744 7.32322 6.26256 7.03033 5.96967L5.28033 4.21967C4.98744 3.92678 4.51256 3.92678 4.21967 4.21967C3.92678 4.51256 3.92678 4.98744 4.21967 5.28033L5.96967 7.03033Z" fill="#4A4A4A"/>
<path fill-rule="evenodd" clip-rule="evenodd" d="M8.21968 8.21968C8.42055 8.01881 8.71768 7.94867 8.98718 8.0385L16.4872 10.5385C16.7338 10.6207 16.9202 10.8247 16.9799 11.0777C17.0397 11.3307 16.9641 11.5966 16.7803 11.7804L14.8107 13.75L16.7803 15.7197C17.0732 16.0126 17.0732 16.4874 16.7803 16.7803C16.4874 17.0732 16.0126 17.0732 15.7197 16.7803L13.75 14.8107L11.7803 16.7803C11.5965 16.9641 11.3307 17.0396 11.0777 16.9799C10.8247 16.9202 10.6207 16.7337 10.5385 16.4872L8.0385 8.98719C7.94866 8.71768 8.01881 8.42056 8.21968 8.21968ZM13.2181 13.2213L13.2197 13.2197L13.2213 13.2181L14.8616 11.5778L9.93586 9.93587L11.5778 14.8616L13.2181 13.2213Z" fill="#4A4A4A"/>
</svg>

<svg viewBox="0 0 20 20" xmlns="http://www.w3.org/2000/svg"><path d="M10.5 3.75a.75.75 0 0 0-1.5 0v2.5a.75.75 0 0 0 1.5 0v-2.5Z" fill="#5C5F62"/><path d="M14.28 6.28a.75.75 0 0 0-1.06-1.06l-1 1a.75.75 0 0 0 1.06 1.06l1-1Z" fill="#5C5F62"/><path d="M7.28 13.28a.75.75 0 0 0-1.06-1.06l-1 1a.75.75 0 1 0 1.06 1.06l1-1Z" fill="#5C5F62"/><path d="M7 9.75a.75.75 0 0 1-.75.75h-2.5a.75.75 0 0 1 0-1.5h2.5a.75.75 0 0 1 .75.75Z" fill="#5C5F62"/><path d="M5.97 7.03a.75.75 0 0 0 1.06-1.06l-1.75-1.75a.75.75 0 0 0-1.06 1.06l1.75 1.75Z" fill="#5C5F62"/><path fill-rule="evenodd" d="M8.22 8.22a.75.75 0 0 1 .767-.181l7.5 2.5a.75.75 0 0 1 .293 1.241l-1.97 1.97 1.97 1.97a.75.75 0 1 1-1.06 1.06l-1.97-1.97-1.97 1.97a.75.75 0 0 1-1.241-.293l-2.5-7.5a.75.75 0 0 1 .18-.767Zm4.998 5.001.002-.001.001-.002 1.64-1.64-4.925-1.642 1.642 4.926 1.64-1.64Z" fill="#5C5F62"/><path d="M10.5 3.75a.75.75 0 0 0-1.5 0v2.5a.75.75 0 0 0 1.5 0v-2.5Z" fill="#5C5F62"/><path d="M14.28 6.28a.75.75 0 0 0-1.06-1.06l-1 1a.75.75 0 0 0 1.06 1.06l1-1Z" fill="#5C5F62"/><path d="M7.28 13.28a.75.75 0 0 0-1.06-1.06l-1 1a.75.75 0 1 0 1.06 1.06l1-1Z" fill="#5C5F62"/><path d="M7 9.75a.75.75 0 0 1-.75.75h-2.5a.75.75 0 0 1 0-1.5h2.5a.75.75 0 0 1 .75.75Z" fill="#5C5F62"/><path d="M5.97 7.03a.75.75 0 0 0 1.06-1.06l-1.75-1.75a.75.75 0 0 0-1.06 1.06l1.75 1.75Z" fill="#5C5F62"/><path fill-rule="evenodd" d="M8.22 8.22a.75.75 0 0 1 .767-.181l7.5 2.5a.75.75 0 0 1 .293 1.241l-1.97 1.97 1.97 1.97a.75.75 0 1 1-1.06 1.06l-1.97-1.97-1.97 1.97a.75.75 0 0 1-1.241-.293l-2.5-7.5a.75.75 0 0 1 .18-.767Zm4.998 5.001.002-.001.001-.002 1.64-1.64-4.925-1.642 1.642 4.926 1.64-1.64Z" fill="#5C5F62"/></svg>
